www/images/time.svg

<svg fill="none" height="75" viewBox="0 0 75 75" width="75" xmlns="http://www.w3.org/2000/svg"><g fill="#fff"><path d="m41.5668 11.0663c-7.8438 0-15.2829 3.4923-20.3001 9.5186l-.0026-.0025c-.3558.4143-.5337.9531-.488 1.497.0458.544.305 1.0472.7269 1.3979.4194.3482.9608.516 1.5047.4601.5439-.056 1.0421-.3254 1.3827-.7523 4.2496-5.1011 10.5375-8.052 17.1762-8.052 12.3757-.0026 22.3666 9.989 22.3666 22.3666s-9.9909 22.3718-22.3666 22.3666c-6.6335-.0025-12.9189-2.961-17.1639-8.0624-.3406-.427-.8387-.6989-1.3826-.7523-.544-.0559-1.0879.1093-1.5072.4601-.4194.3482-.6812.8514-.7244 1.3979-.0458.5439.1321 1.0827.488 1.4945 5.0146 6.0262 12.4492 9.5238 20.2903 9.5264 14.5762.0076 26.4333-11.8597 26.4333-26.4333s-11.8597-26.4359-26.4333-26.4333z"/><path d="m9.03345 35.4637c-1.12344 0-2.03333.9124-2.03333 2.0359 0 1.1234.90989 2.0333 2.03333 2.0333h16.26405c1.1234 0 2.0333-.9099 2.0333-2.0333 0-1.1235-.9099-2.0359-2.0333-2.0359z"/><path d="m15.1361 27.3304c-1.1234 0-2.0333.9099-2.0333 2.0333 0 1.1235.9099 2.0333 2.0333 2.0333h10.1615c1.1234 0 2.0333-.9098 2.0333-2.0333 0-1.1234-.9099-2.0333-2.0333-2.0333z"/><path d="m15.1361 43.5996c-1.1234 0-2.0333.9124-2.0333 2.0333 0 1.1235.9099 2.0359 2.0333 2.0359h10.1615c1.1234 0 2.0333-.9124 2.0333-2.0359 0-1.1209-.9099-2.0333-2.0333-2.0333z"/><path d="m41.5388 21.205c-.5389.0076-1.0548.2313-1.431.6176-.3761.3863-.582.9074-.5744 1.4462v14.2307c0 .5389.2135 1.0574.5948 1.4411l8.1359 8.1282-.0026-.0026c.3787.4016.9023.6354 1.4513.6431.5516.0076 1.0828-.2059 1.4717-.5948.3888-.3889.6023-.9201.5947-1.4716-.0102-.549-.2415-1.0726-.643-1.4488l-7.536-7.536v-13.3894h.0025c.0076-.549-.2059-1.0802-.5948-1.469-.3888-.3889-.9201-.6024-1.469-.5948z"/></g></svg>

<svg width="75" height="75" viewBox="0 0 75 75" fill="none" xmlns="http://www.w3.org/2000/svg">
<path d="M41.5668 11.0663C33.723 11.0663 26.2839 14.5586 21.2667 20.5849L21.2641 20.5824C20.9083 20.9967 20.7304 21.5355 20.7761 22.0794C20.8219 22.6234 21.0811 23.1266 21.503 23.4773C21.9224 23.8255 22.4638 23.9933 23.0077 23.9374C23.5516 23.8814 24.0498 23.612 24.3904 23.1851C28.64 18.084 34.9279 15.1331 41.5666 15.1331C53.9423 15.1305 63.9332 25.1221 63.9332 37.4997C63.9332 49.8773 53.9423 59.8715 41.5666 59.8663C34.9331 59.8638 28.6477 56.9053 24.4027 51.8039C24.0621 51.3769 23.564 51.105 23.0201 51.0516C22.4761 50.9957 21.9322 51.1609 21.5129 51.5117C21.0935 51.8599 20.8317 52.3631 20.7885 52.9096C20.7427 53.4535 20.9206 53.9923 21.2765 54.4041C26.2911 60.4303 33.7257 63.9279 41.5668 63.9305C56.143 63.9381 68.0001 52.0708 68.0001 37.4972C68.0001 22.9236 56.1404 11.0613 41.5668 11.0639L41.5668 11.0663Z" fill="white"/>
<path d="M9.03345 35.4637C7.91001 35.4637 7.00012 36.3761 7.00012 37.4996C7.00012 38.623 7.91001 39.5329 9.03345 39.5329H25.2975C26.4209 39.5329 27.3308 38.623 27.3308 37.4996C27.3308 36.3761 26.4209 35.4637 25.2975 35.4637H9.03345Z" fill="white"/>
<path d="M15.1361 27.3304C14.0127 27.3304 13.1028 28.2403 13.1028 29.3637C13.1028 30.4872 14.0127 31.397 15.1361 31.397H25.2976C26.421 31.397 27.3309 30.4872 27.3309 29.3637C27.3309 28.2403 26.421 27.3304 25.2976 27.3304H15.1361Z" fill="white"/>
<path d="M15.1361 43.5996C14.0127 43.5996 13.1028 44.512 13.1028 45.6329C13.1028 46.7564 14.0127 47.6688 15.1361 47.6688H25.2976C26.421 47.6688 27.3309 46.7564 27.3309 45.6329C27.3309 44.512 26.421 43.5996 25.2976 43.5996H15.1361Z" fill="white"/>
<path d="M41.5388 21.205C40.9999 21.2126 40.484 21.4363 40.1078 21.8226C39.7317 22.2089 39.5258 22.73 39.5334 23.2688V37.4995C39.5334 38.0384 39.7469 38.5569 40.1282 38.9406L48.2641 47.0688L48.2615 47.0662C48.6402 47.4678 49.1638 47.7016 49.7128 47.7093C50.2644 47.7169 50.7956 47.5034 51.1845 47.1145C51.5733 46.7256 51.7868 46.1944 51.7792 45.6429C51.769 45.0939 51.5377 44.5703 51.1362 44.1941L43.6002 36.6581V23.2687H43.6027C43.6103 22.7197 43.3968 22.1885 43.0079 21.7997C42.6191 21.4108 42.0878 21.1973 41.5389 21.2049L41.5388 21.205Z" fill="white"/>
</svg>
